Papirus/64x64/apps/cities-skylines.svg

<?xml version="1.0" encoding="UTF-8" standalone="no"?>
<svg
   id="_图层_1"
   version="1.1"
   viewBox="0 0 64 64" width="64" height="64"
   sodipodi:docname="cities-skylines.svg"
   xml:space="preserve"
   inkscape:version="1.4 (e7c3feb100, 2024-10-09)"
   xmlns:inkscape="http://www.inkscape.org/namespaces/inkscape"
   xmlns:sodipodi="http://sodipodi.sourceforge.net/DTD/sodipodi-0.dtd"
   xmlns="http://www.w3.org/2000/svg"
   xmlns:svg="http://www.w3.org/2000/svg"><sodipodi:namedview
     id="namedview26"
     pagecolor="#505050"
     bordercolor="#eeeeee"
     borderopacity="1"
     inkscape:showpageshadow="0"
     inkscape:pageopacity="0"
     inkscape:pagecheckerboard="0"
     inkscape:deskcolor="#505050"
     inkscape:zoom="10.6875"
     inkscape:cx="32"
     inkscape:cy="32"
     inkscape:window-width="1920"
     inkscape:window-height="939"
     inkscape:window-x="0"
     inkscape:window-y="34"
     inkscape:window-maximized="1"
     inkscape:current-layer="_图层_1" /><!-- Generator: Adobe Illustrator 29.0.1, SVG Export Plug-In . SVG Version: 2.1.0 Build 192)  --><defs
     id="defs6"><style
       id="style1">
      .st0 {
        fill-opacity: .5;
      }

      .st0, .st1, .st2, .st3, .st4, .st5, .st6, .st7 {
        fill: #fff;
      }

      .st8 {
        fill: #133c9a;
      }

      .st2, .st9 {
        display: none;
      }

      .st3 {
        fill-opacity: .2;
      }

      .st4 {
        fill-opacity: .9;
      }

      .st10 {
        fill: #3370ff;
      }

      .st11 {
        fill: url(#_未命名的渐变_3);
      }

      .st12 {
        fill: url(#_未命名的渐变);
      }

      .st5 {
        fill-opacity: .3;
      }

      .st6 {
        fill-opacity: 0;
      }

      .st7 {
        fill-opacity: .7;
      }

      .st13 {
        fill: #00d6b9;
      }

      .st14 {
        fill: url(#_未命名的渐变_2);
      }
    </style><radialGradient
       id="_未命名的渐变"
       data-name="未命名的渐变"
       cx="123.9"
       cy="-40.2"
       fx="123.9"
       fy="-40.2"
       r="59.4"
       gradientTransform="translate(-26.8 25.5) scale(.6 -.7)"
       gradientUnits="userSpaceOnUse"><stop
         offset="0"
         stop-color="#db202e"
         id="stop1" /><stop
         offset="1"
         stop-color="#e01b24"
         id="stop2" /></radialGradient><radialGradient
       id="_未命名的渐变_2"
       data-name="未命名的渐变 2"
       cx="67.6"
       cy="26.8"
       fx="67.6"
       fy="26.8"
       r="105.2"
       gradientTransform="translate(-26.6 25.3) scale(.6 -.7)"
       gradientUnits="userSpaceOnUse"><stop
         offset="0"
         stop-color="#ffb648"
         id="stop3" /><stop
         offset="1"
         stop-color="#ff7800"
         stop-opacity="0"
         id="stop4" /></radialGradient><radialGradient
       id="_未命名的渐变_3"
       data-name="未命名的渐变 3"
       cx="61.7"
       cy="18.6"
       fx="61.7"
       fy="18.6"
       r="68"
       gradientTransform="translate(-26.8 25.8) scale(.6 -.7)"
       gradientUnits="userSpaceOnUse"><stop
         offset="0"
         stop-color="#c64600"
         id="stop5" /><stop
         offset="1"
         stop-color="#a51d2d"
         id="stop6" /></radialGradient></defs><path
     class="st1"
     d="M47.5,64.1H13.8c-7.6,0-13.8-6.3-13.8-13.8V13.7C0,6.2,6.2,0,13.7,0h36.6c7.5,0,13.7,6.2,13.7,13.7v36.6c0,7.5-6.2,13.7-13.7,13.7h-2.9.1Z"
     id="path6"
     style="fill:#f2f2f2;fill-opacity:1" /><g
     id="g26"
     transform="matrix(0.90801863,0,0,0.87108512,3.2102785,3.8768681)"><path
       style="opacity:0.2"
       d="M 7.5,11 A 5.50055,5.50055 0 0 0 2,16.5 v 33 A 5.50055,5.50055 0 0 0 7.5,55 h 16 A 5.50055,5.50055 0 0 0 29,49.5 V 35 H 18 v 9 H 13 V 22 h 5 v 8 H 29 V 16.5 A 5.50055,5.50055 0 0 0 23.5,11 Z m 32,0 A 5.50055,5.50055 0 0 0 34,16.5 v 17 A 5.50055,5.50055 0 0 0 39.5,39 H 50 v 5 H 45 V 42 H 34 v 7.5 a 5.50055,5.50055 0 0 0 5.5,5.5 h 16 A 5.50055,5.50055 0 0 0 61,49.5 v -16 A 5.50055,5.50055 0 0 0 55.5,28 H 45 v -6 h 5 v 3 H 61 V 16.5 A 5.50055,5.50055 0 0 0 55.5,11 Z"
       id="path1" /><path
       style="fill:none;stroke:#43c3ff;stroke-width:11;stroke-linejoin:round"
       d="M 23.5,29 V 15.5 H 7.5000002 v 33 H 23.5 V 34"
       id="path2" /><path
       style="fill:none;stroke:#43c3ff;stroke-width:11;stroke-linejoin:round"
       d="m 55.5,24 v -8.5 h -16 v 17 h 16 v 16 h -16 V 41"
       id="path3" /><path
       style="fill:#4572ab"
       d="M 19,36.568359 V 50 H 18 V 49 H 15.865234 L 15,49.291016 v 2.027343 h -1 v -5.363281 h -3 v 2.681641 H 10.044922 L 9,49.376953 V 43.322266 L 7.5410156,41.541016 6,43.322266 V 53.789062 A 5.50055,5.50055 0 0 0 7.5,54 h 16 A 5.50055,5.50055 0 0 0 27,52.740234 V 44.613281 L 26.037109,43.673828 25,44.613281 V 42 H 22 V 36.568359 Z M 2,39 v 9.5 a 5.50055,5.50055 0 0 0 3.0078125,4.902344 L 5.0585938,39 Z M 59.478516,39.513672 58,40.855469 V 46 h -1 v 7.785156 A 5.50055,5.50055 0 0 0 61,48.5 V 40.839844 Z M 34,42 v 6.5 A 5.50055,5.50055 0 0 0 39.5,54 H 51 V 51.318359 L 50.023438,50.197266 49,49.976562 V 47 h -3 v 6 H 44 V 51.318359 L 43.390625,50 H 41 v 1 h -2 v -5 h -2 v -4 z m 19,3 v 9 h 2 v -9 z"
       id="path4" /><path
       style="opacity:0.2;fill:#ffffff"
       d="M 7.5,10 A 5.50055,5.50055 0 0 0 2,15.5 v 1 A 5.50055,5.50055 0 0 1 7.5,11 h 16 a 5.50055,5.50055 0 0 1 5.5,5.5 v -1 A 5.50055,5.50055 0 0 0 23.5,10 Z m 32,0 A 5.50055,5.50055 0 0 0 34,15.5 v 1 A 5.50055,5.50055 0 0 1 39.5,11 h 16 a 5.50055,5.50055 0 0 1 5.5,5.5 v -1 A 5.50055,5.50055 0 0 0 55.5,10 Z M 45,27 v 1 h 10.5 a 5.50055,5.50055 0 0 1 5.5,5.5 v -1 A 5.50055,5.50055 0 0 0 55.5,27 Z m -27,7 v 1 h 11 v -1 z m 16,7 v 1 h 11 v -1 z m -21,2 v 1 h 5 v -1 z m 32,0 v 1 h 5 v -1 z"
       id="path5" /></g></svg>

<svg xmlns="http://www.w3.org/2000/svg" width="64" height="64" version="1.1">
 <path style="opacity:0.2" d="M 7.5,11 A 5.50055,5.50055 0 0 0 2,16.5 v 33 A 5.50055,5.50055 0 0 0 7.5,55 h 16 A 5.50055,5.50055 0 0 0 29,49.5 V 35 H 18 v 9 H 13 V 22 h 5 v 8 H 29 V 16.5 A 5.50055,5.50055 0 0 0 23.5,11 Z m 32,0 A 5.50055,5.50055 0 0 0 34,16.5 v 17 A 5.50055,5.50055 0 0 0 39.5,39 H 50 v 5 H 45 V 42 H 34 v 7.5 a 5.50055,5.50055 0 0 0 5.5,5.5 h 16 A 5.50055,5.50055 0 0 0 61,49.5 v -16 A 5.50055,5.50055 0 0 0 55.5,28 H 45 v -6 h 5 v 3 H 61 V 16.5 A 5.50055,5.50055 0 0 0 55.5,11 Z"/>
 <path style="fill:none;stroke:#43c3ff;stroke-width:11;stroke-linejoin:round" d="M 23.5,29 V 15.5 H 7.5000002 v 33 H 23.5 V 34"/>
 <path style="fill:none;stroke:#43c3ff;stroke-width:11;stroke-linejoin:round" d="m 55.5,24 v -8.5 h -16 v 17 h 16 v 16 h -16 V 41"/>
 <path style="fill:#4572ab" d="M 19 36.568359 L 19 50 L 18 50 L 18 49 L 15.865234 49 L 15 49.291016 L 15 51.318359 L 14 51.318359 L 14 45.955078 L 11 45.955078 L 11 48.636719 L 10.044922 48.636719 L 9 49.376953 L 9 43.322266 L 7.5410156 41.541016 L 6 43.322266 L 6 53.789062 A 5.50055 5.50055 0 0 0 7.5 54 L 23.5 54 A 5.50055 5.50055 0 0 0 27 52.740234 L 27 44.613281 L 26.037109 43.673828 L 25 44.613281 L 25 42 L 22 42 L 22 36.568359 L 19 36.568359 z M 2 39 L 2 48.5 A 5.50055 5.50055 0 0 0 5.0078125 53.402344 L 5.0585938 39 L 2 39 z M 59.478516 39.513672 L 58 40.855469 L 58 46 L 57 46 L 57 53.785156 A 5.50055 5.50055 0 0 0 61 48.5 L 61 40.839844 L 59.478516 39.513672 z M 34 42 L 34 48.5 A 5.50055 5.50055 0 0 0 39.5 54 L 51 54 L 51 51.318359 L 50.023438 50.197266 L 49 49.976562 L 49 47 L 46 47 L 46 53 L 44 53 L 44 51.318359 L 43.390625 50 L 41 50 L 41 51 L 39 51 L 39 46 L 37 46 L 37 42 L 34 42 z M 53 45 L 53 54 L 55 54 L 55 45 L 53 45 z"/>
 <path style="opacity:0.2;fill:#ffffff" d="M 7.5 10 A 5.50055 5.50055 0 0 0 2 15.5 L 2 16.5 A 5.50055 5.50055 0 0 1 7.5 11 L 23.5 11 A 5.50055 5.50055 0 0 1 29 16.5 L 29 15.5 A 5.50055 5.50055 0 0 0 23.5 10 L 7.5 10 z M 39.5 10 A 5.50055 5.50055 0 0 0 34 15.5 L 34 16.5 A 5.50055 5.50055 0 0 1 39.5 11 L 55.5 11 A 5.50055 5.50055 0 0 1 61 16.5 L 61 15.5 A 5.50055 5.50055 0 0 0 55.5 10 L 39.5 10 z M 45 27 L 45 28 L 55.5 28 A 5.50055 5.50055 0 0 1 61 33.5 L 61 32.5 A 5.50055 5.50055 0 0 0 55.5 27 L 45 27 z M 18 34 L 18 35 L 29 35 L 29 34 L 18 34 z M 34 41 L 34 42 L 45 42 L 45 41 L 34 41 z M 13 43 L 13 44 L 18 44 L 18 43 L 13 43 z M 45 43 L 45 44 L 50 44 L 50 43 L 45 43 z"/>
</svg>
